X:1
T: Butterscotch & Honey
T: 4 x 32S4C (Attwood)
P:McGinty's Meal and Ale
N:Generated more or less automatically by swtoabc by Erich Rickheit KSC
Z:cleaned up and made playable by John Chambers
C: attributed to Willie Kemp
C: From John Chambers; arr. T. Traub 6-24-03
M:4/4
L:1/16
K:D
A3F|"D"D4 D3F A4 A3d | "G"B3A Bd3 "D"A4 F4 | "G"G4 G3G "D"F4 F3D | "E7"E3F E3D "A7"CE3 A3F | "D"D4 D3F A4 A3d | "G"B3A Bd3 "D"A4 A3F |
"Em"G4 G3G "D"F4 A3F | "D"D3D "A7"E3C "D"D4 A2Bc || "D"d3d d3d f3f e3e | d3d c3c B3B A3A | "G"G4 G3E "D"F4 F3D | 
"E7"E3F E3D "A7"CE3 A4 | "D"D4 D3F A4 A3d | "G"B3A Bd3 "D"A3B A3F | "Em"G3F G3A "D"F4 A3F | "D"D3D "A7"E3C "D"D4 |]
